X:1
T:The New Sprog 
C:Marcus Turner
O:New Zealand
M:4/4
L:1/8 
Q:1/4=180
R:Hornpipe
K:D
V:1
AG|:"D"FGAF "G"D2 dB|"A"cdec A2 eg|"Bm"fd (3fga "E"gfed|"A"cdec A2 AG|
"D"FGAF "G"D2 dB|"A"cdec A2 eg|"Bm"fd (3fga "G"gfed|[1 "A"Acfe "D"d2 AG:|[2"A"Acfe "D"d2 dc|
|:"Bm"BABc "F#m"dcde|"Bm"fefb afed|BABc "A"dcde|"G"(3fgf ec "A"dcBA|
"Bm"BABc "F#m"dcde|"Bm"fefb afed|"D"ABcd "G"edcB|[1 "A"Acfe "D"d2 dc:|[2 "A"Acfe "D"d4||